_includes/icons/ios-notification.svg

<svg fill="#666" height="50" viewBox="0 0 50 50" width="50" xmlns="http://www.w3.org/2000/svg"><path d="m25 0c-2.199219 0-4 1.800781-4 4 0 .515625.101563 1.015625.28125 1.46875-5.625 1.460938-9.28125 6.347656-9.28125 12.53125 0 7.832031-1.921875 11.398438-3.75 13.40625-.914062 1.003906-1.816406 1.613281-2.59375 2.1875-.390625.285156-.746094.570313-1.0625.9375-.316406.367188-.59375.890625-.59375 1.46875 0 1.375.84375 2.542969 2.03125 3.3125s2.746094 1.265625 4.625 1.65625c2.4375.503906 5.445313.769531 8.75.90625-.25.664063-.40625 1.378906-.40625 2.125 0 3.300781 2.699219 6 6 6s6-2.699219 6-6c0-.75-.152344-1.464844-.40625-2.125 3.304688-.136719 6.3125-.402344 8.75-.90625 1.878906-.390625 3.4375-.886719 4.625-1.65625s2.03125-1.9375 2.03125-3.3125c0-.578125-.277344-1.101562-.59375-1.46875-.316406-.367187-.671875-.652344-1.0625-.9375-.777344-.574219-1.679687-1.183594-2.59375-2.1875-1.828125-2.007812-3.75-5.574219-3.75-13.40625 0-6.179687-3.664062-11.0625-9.28125-12.53125.179688-.453125.28125-.953125.28125-1.46875 0-2.199219-1.800781-4-4-4zm0 2c1.117188 0 2 .882813 2 2 0 1.117188-.882812 2-2 2-1.117187 0-2-.882812-2-2 0-1.117187.882813-2 2-2zm2.34375 5.1875c5.332031.949219 8.65625 5.070313 8.65625 10.8125 0 8.167969 2.078125 12.363281 4.25 14.75 1.085938 1.191406 2.183594 1.9375 2.90625 2.46875.359375.265625.628906.488281.75.625s.09375.125.09375.15625c0 .625-.289062 1.082031-1.125 1.625-.835937.542969-2.195312 1.046875-3.9375 1.40625-3.484375.722656-8.445312.96875-13.9375.96875-5.492187 0-10.453125-.246094-13.9375-.96875-1.742187-.359375-3.101562-.863281-3.9375-1.40625-.835937-.542969-1.125-1-1.125-1.625 0-.03125-.027344-.019531.09375-.15625s.390625-.359375.75-.625c.722656-.53125 1.820313-1.277344 2.90625-2.46875 2.171875-2.386719 4.25-6.582031 4.25-14.75 0-5.738281 3.328125-9.828125 8.65625-10.78125.664063.488281 1.464844.78125 2.34375.78125.886719 0 1.679688-.316406 2.34375-.8125zm-5.78125 34.75c1.121094.023438 2.261719.0625 3.4375.0625s2.316406-.039062 3.4375-.0625c.355469.601563.5625 1.3125.5625 2.0625 0 2.222656-1.777344 4-4 4s-4-1.777344-4-4c0-.757812.199219-1.460937.5625-2.0625z"/></svg>

<svg xmlns="http://www.w3.org/2000/svg" viewBox="0 0 50 50" width="50" height="50" fill="#666"><path d="M 25 0 C 22.800781 0 21 1.800781 21 4 C 21 4.515625 21.101563 5.015625 21.28125 5.46875 C 15.65625 6.929688 12 11.816406 12 18 C 12 25.832031 10.078125 29.398438 8.25 31.40625 C 7.335938 32.410156 6.433594 33.019531 5.65625 33.59375 C 5.265625 33.878906 4.910156 34.164063 4.59375 34.53125 C 4.277344 34.898438 4 35.421875 4 36 C 4 37.375 4.84375 38.542969 6.03125 39.3125 C 7.21875 40.082031 8.777344 40.578125 10.65625 40.96875 C 13.09375 41.472656 16.101563 41.738281 19.40625 41.875 C 19.15625 42.539063 19 43.253906 19 44 C 19 47.300781 21.699219 50 25 50 C 28.300781 50 31 47.300781 31 44 C 31 43.25 30.847656 42.535156 30.59375 41.875 C 33.898438 41.738281 36.90625 41.472656 39.34375 40.96875 C 41.222656 40.578125 42.78125 40.082031 43.96875 39.3125 C 45.15625 38.542969 46 37.375 46 36 C 46 35.421875 45.722656 34.898438 45.40625 34.53125 C 45.089844 34.164063 44.734375 33.878906 44.34375 33.59375 C 43.566406 33.019531 42.664063 32.410156 41.75 31.40625 C 39.921875 29.398438 38 25.832031 38 18 C 38 11.820313 34.335938 6.9375 28.71875 5.46875 C 28.898438 5.015625 29 4.515625 29 4 C 29 1.800781 27.199219 0 25 0 Z M 25 2 C 26.117188 2 27 2.882813 27 4 C 27 5.117188 26.117188 6 25 6 C 23.882813 6 23 5.117188 23 4 C 23 2.882813 23.882813 2 25 2 Z M 27.34375 7.1875 C 32.675781 8.136719 36 12.257813 36 18 C 36 26.167969 38.078125 30.363281 40.25 32.75 C 41.335938 33.941406 42.433594 34.6875 43.15625 35.21875 C 43.515625 35.484375 43.785156 35.707031 43.90625 35.84375 C 44.027344 35.980469 44 35.96875 44 36 C 44 36.625 43.710938 37.082031 42.875 37.625 C 42.039063 38.167969 40.679688 38.671875 38.9375 39.03125 C 35.453125 39.753906 30.492188 40 25 40 C 19.507813 40 14.546875 39.753906 11.0625 39.03125 C 9.320313 38.671875 7.960938 38.167969 7.125 37.625 C 6.289063 37.082031 6 36.625 6 36 C 6 35.96875 5.972656 35.980469 6.09375 35.84375 C 6.214844 35.707031 6.484375 35.484375 6.84375 35.21875 C 7.566406 34.6875 8.664063 33.941406 9.75 32.75 C 11.921875 30.363281 14 26.167969 14 18 C 14 12.261719 17.328125 8.171875 22.65625 7.21875 C 23.320313 7.707031 24.121094 8 25 8 C 25.886719 8 26.679688 7.683594 27.34375 7.1875 Z M 21.5625 41.9375 C 22.683594 41.960938 23.824219 42 25 42 C 26.175781 42 27.316406 41.960938 28.4375 41.9375 C 28.792969 42.539063 29 43.25 29 44 C 29 46.222656 27.222656 48 25 48 C 22.777344 48 21 46.222656 21 44 C 21 43.242188 21.199219 42.539063 21.5625 41.9375 Z"/></svg>
